;FLAVOR:Marlin
;TIME:4564
;Filament used: 2.374m
;Layer height: 0.2
;MINX:86.279
;MINY:66.702
;MINZ:0.2
;MAXX:148.838
;MAXY:167.387
;MAXZ:16.6
;Generated with Cura_SteamEngine 5.3.1
M140 S50
M105
M190 S50
M104 S200
M105
M109 S200
M82 ;absolute extrusion mode
; Ender 3 Custom Start G-code
G92 E0 ; Reset Extruder
G28 ; Home all axes
G1 Z2.0 F3000 ; Move Z Axis up little to prevent scratching of Heat Bed
G1 X0.1 Y20 Z0.3 F5000.0 ; Move to start position
G1 X0.1 Y200.0 Z0.3 F1500.0 E15 ; Draw the first line
G1 X0.4 Y200.0 Z0.3 F5000.0 ; Move to side a little
G1 X0.4 Y20 Z0.3 F1500.0 E30 ; Draw the second line
G92 E0 ; Reset Extruder
G1 Z2.0 F3000 ; Move Z Axis up little to prevent scratching of Heat Bed
G1 X5 Y20 Z0.3 F5000.0 ; Move over to prevent blob squish
G92 E0
G92 E0
G1 F2700 E-5
;LAYER_COUNT:85
;LAYER:0
M107
G0 F6000 X90.99 Y73.175 Z0.2
;TYPE:SKIRT
G1 F2700 E0
G1 F1200 X91.579 Y72.491 E0.03002
G1 X92.226 Y71.861 E0.06006
G1 X92.658 Y71.498 E0.07883
G1 X93.647 Y70.718 E0.12072
G1 X94.173 Y70.328 E0.1425
G1 X94.922 Y69.823 E0.17254
G1 X95.712 Y69.386 E0.20257
G1 X96.173 Y69.171 E0.21949
G1 X97.006 Y68.808 E0.24971
G1 X97.947 Y68.43 E0.28344
G1 X98.801 Y68.135 E0.31349
G1 X99.677 Y67.917 E0.34352
G1 X100.187 Y67.828 E0.36073
G1 X101.371 Y67.656 E0.40053
G1 X102.065 Y67.576 E0.42376
G1 X102.914 Y67.514 E0.45208
G1 X103.455 Y67.502 E0.47007
G1 X107.917 Y67.502 E0.61848
G1 X108.63 Y67.513 E0.6422
G1 X109.766 Y67.594 E0.68008
G1 X110.33 Y67.666 E0.69899
G1 X112.931 Y67.961 E0.78605
G1 X115.43 Y68.174 E0.86947
G1 X117.993 Y68.319 E0.95485
G1 X120.55 Y68.392 E1.03993
G1 X121.868 Y68.401 E1.08377
G1 X127.975 Y68.402 E1.28689
G1 X128.692 Y68.413 E1.31074
G1 X129.988 Y68.516 E1.35398
G1 X130.639 Y68.616 E1.37589
G1 X131.149 Y68.708 E1.39313
G1 X132.03 Y68.908 E1.42317
G1 X132.889 Y69.184 E1.45318
G1 X134.023 Y69.686 E1.49443
G1 X134.603 Y69.992 E1.51624
G1 X135.058 Y70.248 E1.53361
G1 X135.824 Y70.726 E1.56364
G1 X136.546 Y71.269 E1.59368
G1 X137.291 Y71.948 E1.62721
G1 X137.828 Y72.51 E1.65306
G1 X138.223 Y72.953 E1.6728
G1 X138.794 Y73.653 E1.70285
G1 X139.3 Y74.401 E1.73289
G1 X139.738 Y75.19 E1.7629
G1 X140.105 Y76.015 E1.79293
G1 X140.43 Y76.983 E1.82689
G1 X140.906 Y78.678 E1.88545
G1 X141.644 Y81.123 E1.9704
G1 X142.46 Y83.574 E2.05632
G1 X143.325 Y85.949 E2.14039
G1 X144.254 Y88.291 E2.22418
G1 X145.256 Y90.622 E2.30857
G1 X146.376 Y93.037 E2.39711
G1 X147.022 Y94.374 E2.4465
G1 X147.379 Y95.204 E2.47655
G1 X147.661 Y96.062 E2.50659
G1 X147.865 Y96.941 E2.5366
G1 X147.991 Y97.836 E2.56667
G1 X148.038 Y98.738 E2.59671
G1 X148.004 Y99.64 E2.62673
G1 X147.891 Y100.536 E2.65677
G1 X147.756 Y101.193 E2.67908
G1 X147.48 Y102.342 E2.71838
G1 X147.239 Y103.257 E2.74985
G1 X146.968 Y104.119 E2.7799
G1 X146.527 Y105.151 E2.81723
G1 X146.309 Y105.592 E2.83359
G1 X145.185 Y107.946 E2.92035
G1 X144.139 Y110.307 E3.00624
G1 X143.187 Y112.627 E3.08965
G1 X142.282 Y115.028 E3.17499
G1 X141.46 Y117.408 E3.25874
G1 X140.696 Y119.84 E3.34353
G1 X140.01 Y122.267 E3.42741
G1 X139.377 Y124.773 E3.51338
G1 X138.829 Y127.228 E3.59704
G1 X138.351 Y129.706 E3.68098
G1 X137.936 Y132.23 E3.76605
G1 X137.597 Y134.736 E3.85016
G1 X137.327 Y137.274 E3.93505
G1 X137.129 Y139.811 E4.01969
G1 X137.003 Y142.36 E4.10458
G1 X136.955 Y144.18 E4.16513
G1 X136.875 Y145.215 E4.19966
G1 X136.781 Y145.875 E4.22183
G1 X136.692 Y146.392 E4.23928
G1 X136.5 Y147.275 E4.26933
G1 X136.23 Y148.137 E4.29938
G1 X135.797 Y149.155 E4.33617
G1 X135.586 Y149.585 E4.3521
G1 X135.293 Y150.148 E4.37321
G1 X134.834 Y150.926 E4.40326
G1 X134.308 Y151.66 E4.43329
G1 X133.611 Y152.458 E4.46853
G1 X133.07 Y153.009 E4.49421
G1 X132.65 Y153.411 E4.51355
G1 X132.133 Y153.887 E4.53692
G1 X130.234 Y155.681 E4.62381
G1 X128.424 Y157.492 E4.70897
G1 X126.697 Y159.318 E4.79257
G1 X124.987 Y161.233 E4.87796
G1 X123.592 Y162.878 E4.9497
G1 X122.978 Y163.54 E4.97973
G1 X122.308 Y164.145 E5.00975
G1 X121.586 Y164.689 E5.03982
G1 X120.82 Y165.166 E5.06983
G1 X120.014 Y165.574 E5.09988
G1 X119.176 Y165.909 E5.1299
G1 X118.311 Y166.169 E5.15994
G1 X117.426 Y166.351 E5.18999
G1 X116.924 Y166.418 E5.20683
G1 X116.007 Y166.514 E5.2375
G1 X115.489 Y166.555 E5.25478
G1 X114.586 Y166.587 E5.28483
G1 X113.464 Y166.514 E5.32223
G1 X112.742 Y166.427 E5.34642
G1 X111.974 Y166.313 E5.37224
G1 X111.089 Y166.135 E5.40227
G1 X110.016 Y165.805 E5.4396
G1 X109.311 Y165.545 E5.4646
G1 X108.615 Y165.268 E5.48951
G1 X107.795 Y164.891 E5.51953
G1 X106.811 Y164.313 E5.55749
G1 X106.199 Y163.906 E5.58193
G1 X105.575 Y163.468 E5.60729
G1 X104.864 Y162.911 E5.63733
G1 X104.051 Y162.133 E5.67476
G1 X103.561 Y161.609 E5.69862
G1 X102.988 Y160.96 E5.72741
G1 X102.564 Y160.439 E5.74975
G1 X101.18 Y158.619 E5.8258
G1 X99.602 Y156.651 E5.9097
G1 X97.933 Y154.688 E5.9954
G1 X96.492 Y153.079 E6.06724
G1 X95.746 Y152.266 E6.10394
G1 X95.166 Y151.574 E6.13397
G1 X94.649 Y150.834 E6.16399
G1 X94.245 Y150.138 E6.19076
G1 X94.025 Y149.722 E6.20641
G1 X93.755 Y149.183 E6.22646
G1 X93.392 Y148.356 E6.2565
G1 X93.103 Y147.5 E6.28655
G1 X92.854 Y146.42 E6.32341
G1 X92.78 Y145.994 E6.3378
G1 X92.684 Y145.353 E6.35935
G1 X92.586 Y144.235 E6.39668
G1 X92.57 Y143.565 E6.41897
G1 X92.57 Y117.436 E7.28803
G1 X92.533 Y114.83 E7.37471
G1 X92.424 Y112.262 E7.4602
G1 X92.247 Y109.76 E7.54362
G1 X91.998 Y107.247 E7.62762
G1 X91.67 Y104.684 E7.71356
G1 X91.279 Y102.199 E7.79723
G1 X90.819 Y99.723 E7.88099
G1 X90.275 Y97.196 E7.96696
G1 X89.678 Y94.757 E8.05048
G1 X89.013 Y92.34 E8.13385
G1 X87.984 Y89.033 E8.24905
G1 X87.806 Y88.499 E8.26777
G1 X87.559 Y87.63 E8.29782
G1 X87.394 Y86.772 E8.32688
G1 X87.268 Y85.924 E8.35539
G1 X87.146 Y84.931 E8.38867
G1 X87.079 Y84.03 E8.41872
G1 X87.093 Y83.127 E8.44875
G1 X87.14 Y82.583 E8.46691
G1 X87.286 Y81.337 E8.50864
G1 X87.379 Y80.698 E8.53012
G1 X87.549 Y79.811 E8.56016
G1 X87.796 Y78.942 E8.5902
G1 X87.985 Y78.423 E8.60857
G1 X88.418 Y77.336 E8.64749
G1 X88.689 Y76.704 E8.67036
G1 X89.082 Y75.891 E8.7004
G1 X89.545 Y75.115 E8.73045
G1 X89.864 Y74.658 E8.74899
G1 X90.589 Y73.685 E8.78935
G1 X90.99 Y73.175 E8.81092
G0 F6000 X90.687 Y72.914
G1 F1200 X91.3 Y72.204 E8.84212
G1 X91.947 Y71.574 E8.87216
G1 X92.41 Y71.184 E8.89229
G1 X93.409 Y70.397 E8.93459
G1 X93.949 Y69.996 E8.95696
G1 X94.698 Y69.491 E8.98701
G1 X95.543 Y69.023 E9.01914
G1 X96.013 Y68.804 E9.03638
G1 X96.857 Y68.437 E9.06699
G1 X97.816 Y68.052 E9.10136
G1 X98.704 Y67.747 E9.13259
G1 X99.608 Y67.523 E9.16357
G1 X100.129 Y67.432 E9.18116
G1 X101.325 Y67.259 E9.22135
G1 X102.036 Y67.177 E9.24516
G1 X102.905 Y67.114 E9.27414
G1 X103.446 Y67.102 E9.29213
G1 X107.923 Y67.102 E9.44104
G1 X108.658 Y67.114 E9.46549
G1 X109.817 Y67.197 E9.50414
G1 X110.381 Y67.27 E9.52305
G1 X112.965 Y67.562 E9.60954
G1 X115.464 Y67.776 E9.69296
G1 X118.004 Y67.919 E9.77758
G1 X120.561 Y67.992 E9.86266
G1 X121.871 Y68.001 E9.90623
G1 X127.981 Y68.002 E10.10945
G1 X128.724 Y68.014 E10.13417
G1 X130.02 Y68.117 E10.17741
G1 X130.71 Y68.222 E10.20062
G1 X131.238 Y68.318 E10.21847
G1 X132.152 Y68.527 E10.24965
G1 X133.051 Y68.818 E10.28108
G1 X134.21 Y69.332 E10.32325
G1 X134.799 Y69.643 E10.34541
G1 X135.27 Y69.909 E10.3634
G1 X136.064 Y70.406 E10.39455
G1 X136.815 Y70.973 E10.42585
G1 X137.56 Y71.652 E10.45938
G1 X138.127 Y72.244 E10.48664
G1 X138.533 Y72.7 E10.50695
G1 X139.104 Y73.4 E10.53699
G1 X139.65 Y74.207 E10.5694
G1 X140.088 Y74.996 E10.59941
G1 X140.484 Y75.888 E10.63188
G1 X140.815 Y76.875 E10.6665
G1 X141.289 Y78.562 E10.72478
G1 X142.024 Y80.997 E10.80938
G1 X142.836 Y83.437 E10.89491
G1 X143.697 Y85.802 E10.97862
G1 X144.626 Y88.144 E11.06242
G1 X145.619 Y90.454 E11.14605
G1 X146.736 Y92.863 E11.23437
G1 X147.389 Y94.216 E11.28434
G1 X147.759 Y95.079 E11.31557
G1 X148.051 Y95.972 E11.34681
G1 X148.255 Y96.851 E11.37683
G1 X148.387 Y97.78 E11.40804
G1 X148.438 Y98.753 E11.44044
G1 X148.404 Y99.655 E11.47047
G1 X148.283 Y100.617 E11.50271
G1 X148.145 Y101.286 E11.52543
G1 X147.867 Y102.444 E11.56504
G1 X147.621 Y103.377 E11.59713
G1 X147.35 Y104.239 E11.62719
G1 X146.886 Y105.328 E11.66656
G1 X146.668 Y105.769 E11.68292
G1 X145.551 Y108.108 E11.76913
G1 X144.505 Y110.469 E11.85502
G1 X143.557 Y112.779 E11.93807
G1 X142.66 Y115.159 E12.02267
G1 X141.842 Y117.528 E12.10602
G1 X141.078 Y119.96 E12.19081
G1 X140.395 Y122.376 E12.27432
G1 X139.765 Y124.871 E12.3599
G1 X139.222 Y127.304 E12.44282
G1 X138.744 Y129.782 E12.52675
G1 X138.331 Y132.295 E12.61146
G1 X137.995 Y134.778 E12.6948
G1 X137.725 Y137.316 E12.77969
G1 X137.528 Y139.842 E12.86396
G1 X137.403 Y142.38 E12.94847
G1 X137.354 Y144.211 E13.00939
G1 X137.274 Y145.246 E13.04392
G1 X137.175 Y145.943 E13.06734
G1 X137.083 Y146.477 E13.08536
G1 X136.882 Y147.395 E13.11662
G1 X136.612 Y148.257 E13.14666
G1 X136.156 Y149.331 E13.18547
G1 X135.941 Y149.77 E13.20173
G1 X135.638 Y150.351 E13.22352
G1 X135.179 Y151.129 E13.25356
G1 X134.633 Y151.893 E13.2848
G1 X133.896 Y152.738 E13.32209
G1 X133.347 Y153.298 E13.34817
G1 X132.921 Y153.705 E13.36777
G1 X132.408 Y154.178 E13.39098
G1 X130.509 Y155.972 E13.47787
G1 X128.707 Y157.775 E13.56265
G1 X126.987 Y159.592 E13.64587
G1 X125.292 Y161.492 E13.73055
G1 X123.885 Y163.15 E13.80288
G1 X123.246 Y163.837 E13.83408
G1 X122.576 Y164.442 E13.86411
G1 X121.797 Y165.029 E13.89655
G1 X121.001 Y165.523 E13.92771
G1 X120.195 Y165.931 E13.95776
G1 X119.291 Y166.292 E13.99013
G1 X118.392 Y166.561 E14.02134
G1 X117.507 Y166.743 E14.05139
G1 X116.966 Y166.816 E14.06955
G1 X116.039 Y166.913 E14.10055
G1 X115.503 Y166.955 E14.11843
G1 X114.6 Y166.987 E14.14849
G1 X113.416 Y166.911 E14.18795
G1 X112.683 Y166.823 E14.2125
G1 X111.895 Y166.705 E14.239
G1 X111.01 Y166.527 E14.26903
G1 X109.878 Y166.18 E14.30841
G1 X109.163 Y165.917 E14.33375
G1 X108.467 Y165.64 E14.35866
G1 X107.592 Y165.236 E14.39072
G1 X106.589 Y164.646 E14.42942
G1 X105.969 Y164.233 E14.4542
G1 X105.328 Y163.783 E14.48025
G1 X104.587 Y163.2 E14.51161
G1 X103.774 Y162.422 E14.54903
G1 X103.261 Y161.874 E14.574
G1 X102.688 Y161.225 E14.60279
G1 X102.246 Y160.681 E14.62611
G1 X100.862 Y158.861 E14.70215
G1 X99.297 Y156.91 E14.78534
G1 X97.628 Y154.947 E14.87104
G1 X96.194 Y153.346 E14.94253
G1 X95.439 Y152.523 E14.97967
G1 X94.859 Y151.831 E15.00971
G1 X94.303 Y151.035 E15.042
G1 X93.891 Y150.325 E15.0693
G1 X93.667 Y149.901 E15.08525
G1 X93.389 Y149.344 E15.10596
G1 X93.013 Y148.484 E15.13717
G1 X92.713 Y147.59 E15.16854
G1 X92.464 Y146.51 E15.2054
G1 X92.384 Y146.053 E15.22083
G1 X92.288 Y145.412 E15.24239
G1 X92.186 Y144.245 E15.28135
G1 X92.17 Y143.575 E15.30364
G1 X92.17 Y117.436 E16.17303
G1 X92.133 Y114.836 E16.25952
G1 X92.024 Y112.279 E16.34464
G1 X91.848 Y109.788 E16.4277
G1 X91.601 Y107.298 E16.51092
G1 X91.273 Y104.735 E16.59686
G1 X90.884 Y102.261 E16.68016
G1 X90.426 Y99.796 E16.76355
G1 X89.886 Y97.291 E16.84878
G1 X89.289 Y94.852 E16.93229
G1 X88.627 Y92.446 E17.01529
G1 X87.603 Y89.152 E17.13002
G1 X87.421 Y88.608 E17.1491
G1 X87.166 Y87.706 E17.18028
G1 X86.998 Y86.831 E17.20991
G1 X86.871 Y85.973 E17.23876
G1 X86.747 Y84.961 E17.27267
G1 X86.679 Y84.024 E17.30392
G1 X86.694 Y83.093 E17.33489
G1 X86.743 Y82.536 E17.35348
G1 X86.89 Y81.279 E17.39558
G1 X86.986 Y80.623 E17.41763
G1 X87.164 Y79.702 E17.44883
G1 X87.42 Y78.805 E17.47985
G1 X87.613 Y78.275 E17.49861
G1 X88.05 Y77.178 E17.53789
G1 X88.321 Y76.546 E17.56076
G1 X88.738 Y75.686 E17.59255
G1 X89.201 Y74.91 E17.6226
G1 X89.543 Y74.419 E17.64251
G1 X90.275 Y73.438 E17.68322
G1 X90.687 Y72.914 E17.70539
G0 F6000 X90.384 Y72.653
G1 F1200 X91.021 Y71.917 E17.73776
G1 X91.668 Y71.287 E17.7678
G1 X92.162 Y70.87 E17.7893
G1 X93.171 Y70.076 E17.832
G1 X93.725 Y69.664 E17.85497
G1 X94.474 Y69.159 E17.88501
G1 X95.374 Y68.66 E17.91924
G1 X95.853 Y68.437 E17.93681
G1 X96.708 Y68.066 E17.96781
G1 X97.686 Y67.674 E18.00286
G1 X98.608 Y67.359 E18.03526
G1 X99.539 Y67.129 E18.06716
G1 X100.072 Y67.036 E18.08515
G1 X101.279 Y66.862 E18.12571
G1 X102.007 Y66.778 E18.15009
G1 X102.896 Y66.714 E18.17973
G1 X103.437 Y66.702 E18.19773
G1 X107.93 Y66.702 E18.34717
G1 X108.687 Y66.715 E18.37235
G1 X109.868 Y66.8 E18.41173
G1 X110.432 Y66.874 E18.43065
G1 X112.999 Y67.163 E18.51657
G1 X115.498 Y67.378 E18.59999
G1 X118.015 Y67.519 E18.68384
G1 X120.572 Y67.592 E18.76892
G1 X121.874 Y67.601 E18.81223
G1 X127.987 Y67.602 E19.01555
G1 X128.756 Y67.615 E19.04113
G1 X130.052 Y67.718 E19.08437
G1 X130.782 Y67.828 E19.10892
G1 X131.327 Y67.928 E19.12735
G1 X132.275 Y68.146 E19.1597
G1 X133.213 Y68.452 E19.19252
G1 X134.397 Y68.978 E19.23561
G1 X134.996 Y69.295 E19.25815
G1 X135.482 Y69.57 E19.27673
G1 X136.305 Y70.087 E19.30905
G1 X137.084 Y70.677 E19.34155
G1 X137.849 Y71.375 E19.376
G1 X138.426 Y71.978 E19.40376
G1 X138.843 Y72.447 E19.42463
G1 X139.414 Y73.147 E19.45467
G1 X140 Y74.013 E19.48945
G1 X140.454 Y74.834 E19.52066
G1 X140.85 Y75.726 E19.55312
G1 X141.2 Y76.767 E19.58964
G1 X141.672 Y78.446 E19.64765
G1 X142.404 Y80.871 E19.7319
G1 X143.212 Y83.3 E19.81704
G1 X144.069 Y85.655 E19.9004
G1 X144.998 Y87.997 E19.9842
G1 X145.982 Y90.286 E20.06707
G1 X147.096 Y92.689 E20.15516
G1 X147.757 Y94.058 E20.20572
G1 X148.127 Y94.921 E20.23695
G1 X148.441 Y95.882 E20.27058
G1 X148.645 Y96.761 E20.30059
G1 X148.783 Y97.724 E20.33295
G1 X148.838 Y98.768 E20.36772
G1 X148.804 Y99.67 E20.39774
G1 X148.675 Y100.698 E20.4322
G1 X148.534 Y101.379 E20.45533
G1 X148.254 Y102.546 E20.49525
G1 X148.003 Y103.497 E20.52796
G1 X147.732 Y104.359 E20.55802
G1 X147.245 Y105.505 E20.59943
G1 X147.027 Y105.946 E20.61579
G1 X145.917 Y108.27 E20.70145
G1 X144.871 Y110.631 E20.78734
G1 X143.927 Y112.931 E20.87003
G1 X143.038 Y115.29 E20.95388
G1 X142.224 Y117.648 E21.03685
G1 X141.46 Y120.08 E21.12164
G1 X140.78 Y122.485 E21.20476
G1 X140.153 Y124.969 E21.28997
G1 X139.615 Y127.38 E21.37213
G1 X139.137 Y129.858 E21.45607
G1 X138.726 Y132.36 E21.5404
G1 X138.393 Y134.82 E21.62297
G1 X138.123 Y137.358 E21.70786
G1 X137.927 Y139.873 E21.79176
G1 X137.803 Y142.4 E21.87591
G1 X137.753 Y144.242 E21.9372
G1 X137.673 Y145.277 E21.97173
G1 X137.569 Y146.011 E21.99639
G1 X137.474 Y146.563 E22.01501
G1 X137.264 Y147.515 E22.04744
G1 X136.994 Y148.377 E22.07748
G1 X136.515 Y149.507 E22.1183
G1 X136.296 Y149.955 E22.13489
G1 X135.983 Y150.554 E22.15737
G1 X135.524 Y151.332 E22.18741
G1 X134.958 Y152.126 E22.21984
G1 X134.182 Y153.018 E22.25917
G1 X133.623 Y153.587 E22.2857
G1 X133.192 Y153.999 E22.30553
G1 X132.683 Y154.469 E22.32857
G1 X130.784 Y156.263 E22.41546
G1 X128.99 Y158.058 E22.49987
G1 X127.277 Y159.867 E22.58273
G1 X125.597 Y161.751 E22.66669
G1 X124.178 Y163.422 E22.7396
G1 X123.514 Y164.134 E22.77198
G1 X122.844 Y164.739 E22.80201
G1 X122.008 Y165.369 E22.83682
G1 X121.182 Y165.88 E22.86913
G1 X120.376 Y166.288 E22.89918
G1 X119.406 Y166.675 E22.93391
G1 X118.473 Y166.953 E22.96629
G1 X117.588 Y167.135 E22.99634
G1 X117.008 Y167.214 E23.01581
G1 X116.07 Y167.312 E23.04718
G1 X115.517 Y167.355 E23.06563
G1 X114.614 Y167.387 E23.09568
G1 X113.368 Y167.308 E23.13721
G1 X112.624 Y167.219 E23.16213
G1 X111.816 Y167.097 E23.18931
G1 X110.931 Y166.919 E23.21933
G1 X109.74 Y166.555 E23.26075
G1 X109.015 Y166.289 E23.28644
G1 X108.299 Y166.003 E23.31208
G1 X107.389 Y165.581 E23.34545
G1 X106.367 Y164.979 E23.3849
G1 X105.739 Y164.56 E23.41001
G1 X105.081 Y164.097 E23.43677
G1 X104.31 Y163.489 E23.46942
G1 X103.497 Y162.711 E23.50685
G1 X102.961 Y162.139 E23.53292
G1 X102.388 Y161.49 E23.56172
G1 X101.928 Y160.923 E23.586
G1 X100.544 Y159.103 E23.66205
G1 X98.992 Y157.169 E23.74453
G1 X97.323 Y155.206 E23.83022
G1 X95.896 Y153.613 E23.90136
G1 X95.132 Y152.78 E23.93895
G1 X94.552 Y152.088 E23.96898
G1 X93.957 Y151.236 E24.00355
G1 X93.537 Y150.512 E24.03138
G1 X93.309 Y150.08 E24.04763
G1 X93.022 Y149.504 E24.06904
G1 X92.646 Y148.644 E24.10025
G1 X92.323 Y147.68 E24.13407
G1 X92.07 Y146.579 E24.17164
G1 X91.988 Y146.112 E24.18741
G1 X91.892 Y145.471 E24.20897
G1 X91.786 Y144.255 E24.24957
G1 X91.77 Y143.585 E24.27186
G1 X91.77 Y117.436 E25.14158
G1 X91.733 Y114.842 E25.22786
G1 X91.624 Y112.296 E25.31262
G1 X91.449 Y109.816 E25.39531
G1 X91.204 Y107.349 E25.47777
